X: 1
T: Kincaldrum's Reel
C:
R:Reel
F:http://www.math.mun.ca/~bshawyer/reels/KincaldrumsReel.abc
M:4/4
L:1/8
K:G
   d | g2dc B2AG | FGAB cAAf | gdec B2AG | DFAc BGG :|
|: B | DGBG AGBG | DGBG cAAc | Bdef gedc | BdAc BGG :|
